resources/main-logo.svg

<svg width="806" height="67" viewBox="0 0 806 67" fill="none" xmlns="http://www.w3.org/2000/svg">
<path d="M25.92 66.87C20.94 66.87 16.5 65.85 12.6 63.81C8.7 61.71 5.61 58.77 3.33 54.99C1.11 51.21 0 46.71 0 41.49V2.7H16.83V41.76C16.83 43.74 17.19 45.51 17.91 47.07C18.69 48.57 19.74 49.77 21.06 50.67C22.44 51.57 24.06 52.02 25.92 52.02C27.78 52.02 29.4 51.57 30.78 50.67C32.16 49.77 33.21 48.57 33.93 47.07C34.65 45.51 35.01 43.74 35.01 41.76V2.7H52.02V41.76C52.02 43.74 52.38 45.51 53.1 47.07C53.82 48.57 54.87 49.77 56.25 50.67C57.63 51.57 59.25 52.02 61.11 52.02C62.97 52.02 64.56 51.57 65.88 50.67C67.26 49.77 68.31 48.57 69.03 47.07C69.81 45.51 70.2 43.74 70.2 41.76V2.7H86.94V41.49C86.94 46.71 85.83 51.21 83.61 54.99C81.39 58.77 78.33 61.71 74.43 63.81C70.59 65.85 66.15 66.87 61.11 66.87C58.71 66.87 56.43 66.6 54.27 66.06C52.11 65.52 50.13 64.74 48.33 63.72C46.53 62.7 44.91 61.47 43.47 60.03C42.03 61.41 40.41 62.64 38.61 63.72C36.81 64.74 34.83 65.52 32.67 66.06C30.57 66.6 28.32 66.87 25.92 66.87Z" fill="white"/>
<path d="M165.741 65.7C160.521 65.7 155.901 64.77 151.881 62.91C147.921 61.05 144.771 58.38 142.431 54.9C140.151 51.42 139.011 47.31 139.011 42.57C139.011 37.29 140.121 32.85 142.341 29.25C144.561 25.65 147.501 22.92 151.161 21.06C154.821 19.2 158.751 18.27 162.951 18.27C167.511 18.27 171.441 19.23 174.741 21.15C178.101 23.01 180.681 25.65 182.481 29.07C184.341 32.49 185.271 36.48 185.271 41.04C185.271 42 185.211 43.11 185.091 44.37C185.031 45.57 184.881 46.59 184.641 47.43H155.211C155.571 48.75 156.141 49.86 156.921 50.76C157.761 51.6 158.841 52.23 160.161 52.65C161.541 53.07 163.101 53.28 164.841 53.28H180.141V65.7H165.741ZM154.671 38.34H170.511C170.511 37.44 170.391 36.63 170.151 35.91C169.911 35.13 169.581 34.41 169.161 33.75C168.741 33.09 168.231 32.52 167.631 32.04C167.031 31.56 166.311 31.2 165.471 30.96C164.631 30.72 163.731 30.6 162.771 30.6C161.511 30.6 160.401 30.81 159.441 31.23C158.481 31.65 157.671 32.22 157.011 32.94C156.351 33.6 155.811 34.41 155.391 35.37C155.031 36.27 154.791 37.26 154.671 38.34Z" fill="white"/>
<path d="M237.575 65.7V0H253.145V65.7H237.575Z" fill="white"/>
<path d="M330.672 65.7C325.872 65.7 321.582 64.71 317.802 62.73C314.022 60.75 311.052 58.02 308.892 54.54C306.732 51.06 305.652 47.07 305.652 42.57C305.652 38.07 306.732 34.08 308.892 30.6C311.052 27.06 314.022 24.3 317.802 22.32C321.582 20.34 325.872 19.35 330.672 19.35H338.682V32.31H331.662C329.562 32.31 327.732 32.76 326.172 33.66C324.612 34.56 323.412 35.79 322.572 37.35C321.732 38.91 321.312 40.65 321.312 42.57C321.312 44.49 321.732 46.26 322.572 47.88C323.412 49.44 324.612 50.67 326.172 51.57C327.732 52.47 329.562 52.92 331.662 52.92H338.682V65.7H330.672Z" fill="white"/>
<path d="M414.35 66.78C409.67 66.78 405.41 65.76 401.57 63.72C397.79 61.62 394.76 58.74 392.48 55.08C390.2 51.42 389.06 47.22 389.06 42.48C389.06 37.8 390.2 33.63 392.48 29.97C394.76 26.31 397.82 23.46 401.66 21.42C405.5 19.32 409.76 18.27 414.44 18.27C419.12 18.27 423.35 19.32 427.13 21.42C430.97 23.46 434 26.31 436.22 29.97C438.5 33.63 439.64 37.8 439.64 42.48C439.64 47.22 438.5 51.42 436.22 55.08C434 58.74 430.97 61.62 427.13 63.72C423.35 65.76 419.09 66.78 414.35 66.78ZM414.35 52.92C416.27 52.92 417.95 52.47 419.39 51.57C420.89 50.67 422.03 49.44 422.81 47.88C423.59 46.26 423.98 44.46 423.98 42.48C423.98 40.44 423.59 38.64 422.81 37.08C422.03 35.52 420.89 34.29 419.39 33.39C417.95 32.49 416.27 32.04 414.35 32.04C412.43 32.04 410.75 32.49 409.31 33.39C407.87 34.29 406.73 35.52 405.89 37.08C405.11 38.64 404.72 40.44 404.72 42.48C404.72 44.46 405.11 46.26 405.89 47.88C406.73 49.44 407.87 50.67 409.31 51.57C410.75 52.47 412.43 52.92 414.35 52.92Z" fill="white"/>
<path d="M492.018 65.7V38.52C492.018 34.5 492.918 30.99 494.718 27.99C496.578 24.93 499.158 22.56 502.458 20.88C505.758 19.14 509.688 18.27 514.248 18.27C516.528 18.27 518.628 18.51 520.548 18.99C522.528 19.41 524.298 20.04 525.858 20.88C527.478 21.72 528.858 22.68 529.998 23.76H530.178C531.378 22.68 532.758 21.72 534.318 20.88C535.878 20.04 537.618 19.41 539.538 18.99C541.518 18.51 543.648 18.27 545.928 18.27C550.548 18.27 554.508 19.14 557.808 20.88C561.168 22.56 563.748 24.93 565.548 27.99C567.348 30.99 568.248 34.5 568.248 38.52V65.7H552.678L552.588 39.24C552.588 37.92 552.288 36.72 551.688 35.64C551.088 34.56 550.248 33.69 549.168 33.03C548.088 32.37 546.798 32.04 545.298 32.04C543.858 32.04 542.568 32.37 541.428 33.03C540.348 33.69 539.478 34.56 538.818 35.64C538.218 36.72 537.918 37.92 537.918 39.24V65.7H522.348V39.24C522.348 37.92 522.018 36.72 521.358 35.64C520.758 34.56 519.888 33.69 518.748 33.03C517.668 32.37 516.378 32.04 514.878 32.04C513.498 32.04 512.238 32.37 511.098 33.03C510.018 33.69 509.148 34.56 508.488 35.64C507.888 36.72 507.588 37.92 507.588 39.24V65.7H492.018Z" fill="white"/>
<path d="M647.382 65.7C642.162 65.7 637.542 64.77 633.522 62.91C629.562 61.05 626.412 58.38 624.072 54.9C621.792 51.42 620.652 47.31 620.652 42.57C620.652 37.29 621.762 32.85 623.982 29.25C626.202 25.65 629.142 22.92 632.802 21.06C636.462 19.2 640.392 18.27 644.592 18.27C649.152 18.27 653.082 19.23 656.382 21.15C659.742 23.01 662.322 25.65 664.122 29.07C665.982 32.49 666.912 36.48 666.912 41.04C666.912 42 666.852 43.11 666.732 44.37C666.672 45.57 666.522 46.59 666.282 47.43H636.852C637.212 48.75 637.782 49.86 638.562 50.76C639.402 51.6 640.482 52.23 641.802 52.65C643.182 53.07 644.742 53.28 646.482 53.28H661.782V65.7H647.382ZM636.312 38.34H652.152C652.152 37.44 652.032 36.63 651.792 35.91C651.552 35.13 651.222 34.41 650.802 33.75C650.382 33.09 649.872 32.52 649.272 32.04C648.672 31.56 647.952 31.2 647.112 30.96C646.272 30.72 645.372 30.6 644.412 30.6C643.152 30.6 642.042 30.81 641.082 31.23C640.122 31.65 639.312 32.22 638.652 32.94C637.992 33.6 637.452 34.41 637.032 35.37C636.672 36.27 636.432 37.26 636.312 38.34Z" fill="white"/>
<path d="M789.024 43.92V2.7H803.964V43.92H789.024ZM796.494 66.87C794.034 66.87 791.934 65.97 790.194 64.17C788.454 62.37 787.584 60.24 787.584 57.78C787.584 55.32 788.454 53.22 790.194 51.48C791.934 49.68 794.034 48.78 796.494 48.78C799.014 48.78 801.144 49.68 802.884 51.48C804.684 53.22 805.584 55.32 805.584 57.78C805.584 59.4 805.164 60.9 804.324 62.28C803.544 63.66 802.464 64.77 801.084 65.61C799.704 66.45 798.174 66.87 796.494 66.87Z" fill="white"/>
</svg>

<svg xmlns="http://www.w3.org/2000/svg" width="806" height="67" fill="none"><path fill="#fff" d="M25.92 66.87c-4.98 0-9.42-1.02-13.32-3.06-3.9-2.1-6.99-5.04-9.27-8.82C1.11 51.21 0 46.71 0 41.49V2.7h16.83v39.06c0 1.98.36 3.75 1.08 5.31.78 1.5 1.83 2.7 3.15 3.6 1.38.9 3 1.35 4.86 1.35 1.86 0 3.48-.45 4.86-1.35a8.72 8.72 0 0 0 3.15-3.6c.72-1.56 1.08-3.33 1.08-5.31V2.7h17.01v39.06c0 1.98.36 3.75 1.08 5.31a8.72 8.72 0 0 0 3.15 3.6c1.38.9 3 1.35 4.86 1.35 1.86 0 3.45-.45 4.77-1.35a8.72 8.72 0 0 0 3.15-3.6c.78-1.56 1.17-3.33 1.17-5.31V2.7h16.74v38.79c0 5.22-1.11 9.72-3.33 13.5-2.22 3.78-5.28 6.72-9.18 8.82-3.84 2.04-8.28 3.06-13.32 3.06-2.4 0-4.68-.27-6.84-.81s-4.14-1.32-5.94-2.34a22.58 22.58 0 0 1-4.86-3.69 27.263 27.263 0 0 1-4.86 3.69c-1.8 1.02-3.78 1.8-5.94 2.34-2.1.54-4.35.81-6.75.81ZM165.741 65.7c-5.22 0-9.84-.93-13.86-2.79-3.96-1.86-7.11-4.53-9.45-8.01-2.28-3.48-3.42-7.59-3.42-12.33 0-5.28 1.11-9.72 3.33-13.32 2.22-3.6 5.16-6.33 8.82-8.19 3.66-1.86 7.59-2.79 11.79-2.79 4.56 0 8.49.96 11.79 2.88 3.36 1.86 5.94 4.5 7.74 7.92 1.86 3.42 2.79 7.41 2.79 11.97 0 .96-.06 2.07-.18 3.33-.06 1.2-.21 2.22-.45 3.06h-29.43c.36 1.32.93 2.43 1.71 3.33.84.84 1.92 1.47 3.24 1.89 1.38.42 2.94.63 4.68.63h15.3V65.7h-14.4Zm-11.07-27.36h15.84c0-.9-.12-1.71-.36-2.43-.24-.78-.57-1.5-.99-2.16-.42-.66-.93-1.23-1.53-1.71s-1.32-.84-2.16-1.08c-.84-.24-1.74-.36-2.7-.36-1.26 0-2.37.21-3.33.63-.96.42-1.77.99-2.43 1.71-.66.66-1.2 1.47-1.62 2.43-.36.9-.6 1.89-.72 2.97ZM237.575 65.7V0h15.57v65.7h-15.57ZM330.672 65.7c-4.8 0-9.09-.99-12.87-2.97-3.78-1.98-6.75-4.71-8.91-8.19-2.16-3.48-3.24-7.47-3.24-11.97 0-4.5 1.08-8.49 3.24-11.97 2.16-3.54 5.13-6.3 8.91-8.28 3.78-1.98 8.07-2.97 12.87-2.97h8.01v12.96h-7.02c-2.1 0-3.93.45-5.49 1.35-1.56.9-2.76 2.13-3.6 3.69-.84 1.56-1.26 3.3-1.26 5.22s.42 3.69 1.26 5.31c.84 1.56 2.04 2.79 3.6 3.69 1.56.9 3.39 1.35 5.49 1.35h7.02V65.7h-8.01ZM414.35 66.78c-4.68 0-8.94-1.02-12.78-3.06-3.78-2.1-6.81-4.98-9.09-8.64-2.28-3.66-3.42-7.86-3.42-12.6 0-4.68 1.14-8.85 3.42-12.51 2.28-3.66 5.34-6.51 9.18-8.55 3.84-2.1 8.1-3.15 12.78-3.15s8.91 1.05 12.69 3.15c3.84 2.04 6.87 4.89 9.09 8.55 2.28 3.66 3.42 7.83 3.42 12.51 0 4.74-1.14 8.94-3.42 12.6-2.22 3.66-5.25 6.54-9.09 8.64-3.78 2.04-8.04 3.06-12.78 3.06Zm0-13.86c1.92 0 3.6-.45 5.04-1.35 1.5-.9 2.64-2.13 3.42-3.69.78-1.62 1.17-3.42 1.17-5.4 0-2.04-.39-3.84-1.17-5.4a8.822 8.822 0 0 0-3.42-3.69c-1.44-.9-3.12-1.35-5.04-1.35s-3.6.45-5.04 1.35c-1.44.9-2.58 2.13-3.42 3.69-.78 1.56-1.17 3.36-1.17 5.4 0 1.98.39 3.78 1.17 5.4.84 1.56 1.98 2.79 3.42 3.69 1.44.9 3.12 1.35 5.04 1.35ZM492.018 65.7V38.52c0-4.02.9-7.53 2.7-10.53 1.86-3.06 4.44-5.43 7.74-7.11 3.3-1.74 7.23-2.61 11.79-2.61 2.28 0 4.38.24 6.3.72 1.98.42 3.75 1.05 5.31 1.89 1.62.84 3 1.8 4.14 2.88h.18c1.2-1.08 2.58-2.04 4.14-2.88 1.56-.84 3.3-1.47 5.22-1.89 1.98-.48 4.11-.72 6.39-.72 4.62 0 8.58.87 11.88 2.61 3.36 1.68 5.94 4.05 7.74 7.11 1.8 3 2.7 6.51 2.7 10.53V65.7h-15.57l-.09-26.46c0-1.32-.3-2.52-.9-3.6a7.006 7.006 0 0 0-2.52-2.61c-1.08-.66-2.37-.99-3.87-.99-1.44 0-2.73.33-3.87.99a7.757 7.757 0 0 0-2.61 2.61c-.6 1.08-.9 2.28-.9 3.6V65.7h-15.57V39.24c0-1.32-.33-2.52-.99-3.6-.6-1.08-1.47-1.95-2.61-2.61-1.08-.66-2.37-.99-3.87-.99-1.38 0-2.64.33-3.78.99a7.757 7.757 0 0 0-2.61 2.61c-.6 1.08-.9 2.28-.9 3.6V65.7h-15.57ZM647.382 65.7c-5.22 0-9.84-.93-13.86-2.79-3.96-1.86-7.11-4.53-9.45-8.01-2.28-3.48-3.42-7.59-3.42-12.33 0-5.28 1.11-9.72 3.33-13.32 2.22-3.6 5.16-6.33 8.82-8.19 3.66-1.86 7.59-2.79 11.79-2.79 4.56 0 8.49.96 11.79 2.88 3.36 1.86 5.94 4.5 7.74 7.92 1.86 3.42 2.79 7.41 2.79 11.97 0 .96-.06 2.07-.18 3.33-.06 1.2-.21 2.22-.45 3.06h-29.43c.36 1.32.93 2.43 1.71 3.33.84.84 1.92 1.47 3.24 1.89 1.38.42 2.94.63 4.68.63h15.3V65.7h-14.4Zm-11.07-27.36h15.84c0-.9-.12-1.71-.36-2.43-.24-.78-.57-1.5-.99-2.16-.42-.66-.93-1.23-1.53-1.71s-1.32-.84-2.16-1.08c-.84-.24-1.74-.36-2.7-.36-1.26 0-2.37.21-3.33.63-.96.42-1.77.99-2.43 1.71-.66.66-1.2 1.47-1.62 2.43-.36.9-.6 1.89-.72 2.97ZM789.024 43.92V2.7h14.94v41.22h-14.94Zm7.47 22.95c-2.46 0-4.56-.9-6.3-2.7-1.74-1.8-2.61-3.93-2.61-6.39 0-2.46.87-4.56 2.61-6.3 1.74-1.8 3.84-2.7 6.3-2.7 2.52 0 4.65.9 6.39 2.7 1.8 1.74 2.7 3.84 2.7 6.3 0 1.62-.42 3.12-1.26 4.5a9.072 9.072 0 0 1-3.24 3.33c-1.38.84-2.91 1.26-4.59 1.26Z"/></svg>
